assets/img/braze_icons/currency-ethereum.svg

<svg fill="none" height="24" viewBox="0 0 24 24" width="24" xmlns="http://www.w3.org/2000/svg"><g fill="#801ed7"><path d="m12.7474 1.33564c-.1898-.21349-.4618-.33564-.7474-.33564-.2857 0-.5577.12215-.7474.33564l-8.00003 9.00016c-.23238.2614-.31127.6253-.20804.9595.10324.3342.37359.5902.71294.675l8.00003 1.9998c.1592.0399.3258.0399.485 0l8-2c.3394-.0848.6097-.3408.7129-.675.1033-.3342.0244-.698-.208-.9595z"/><path d="m5.72484 14.0257c-.42801-.0988-.87036.0933-1.09038.4735-.22001.3802-.16616.8594.13274 1.1813l6.5001 7c.1892.2038.4547.3196.7328.3196s.5436-.1158.7328-.3196l6.4999-7c.2989-.3219.3527-.8011.1327-1.1813s-.6624-.5723-1.0904-.4735l-6.2751 1.4481z"/></g></svg>

<svg width="24" height="24" viewBox="0 0 24 24" fill="none" xmlns="http://www.w3.org/2000/svg">
<path d="M12.7474 1.33564C12.5576 1.12215 12.2856 1 12 1C11.7143 1 11.4423 1.12215 11.2526 1.33564L3.25257 10.3358C3.02019 10.5972 2.9413 10.9611 3.04453 11.2953C3.14777 11.6295 3.41812 11.8855 3.75747 11.9703L11.7575 13.9701C11.9167 14.01 12.0833 14.01 12.2425 13.9701L20.2425 11.9701C20.5819 11.8853 20.8522 11.6293 20.9554 11.2951C21.0587 10.9609 20.9798 10.5971 20.7474 10.3356L12.7474 1.33564Z" fill="#801ED7"/>
<path d="M5.72484 14.0257C5.29683 13.9269 4.85448 14.119 4.63446 14.4992C4.41445 14.8794 4.4683 15.3586 4.7672 15.6805L11.2673 22.6805C11.4565 22.8843 11.722 23.0001 12.0001 23.0001C12.2782 23.0001 12.5437 22.8843 12.7329 22.6805L19.2328 15.6805C19.5317 15.3586 19.5855 14.8794 19.3655 14.4992C19.1455 14.119 18.7031 13.9269 18.2751 14.0257L12 15.4738L5.72484 14.0257Z" fill="#801ED7"/>
</svg>
